X: 23267
T: Leaving Lochmaddy
R: barndance
M: 4/4
K: Gmajor
|:A3 e e3 c|d3 c de A2|(3edc d2 c d2 c|de G4 AG|
E A3 e3 c|d3 c de A2|(3cde d3 BBG|A6 z2:|
|:a3 e e3 c|d3 c de A2|(3cde g3 ffd|e6 z2|
a3 e e3 c|d3 c de A2|(3cde d3 BBG|A6 z2:|

